svgs/sharp-solid/hand-back-point-down.svg

<svg xmlns="http://www.w3.org/2000/svg" viewBox="0 0 448 512"><!--! Font Awesome Pro 6.6.0 by @fontawesome - https://fontawesome.com License - https://fontawesome.com/license (Commercial License) Copyright 2024 Fonticons, Inc. --><path d="M176 512l-80 0 0-224 0-13.3 0-2.7 0-80 0-16-32 0 0 16 0 56L16 208l0-68c0-38 16.9-74 46.1-98.3l5.4-4.5C96.3 13.1 132.5 0 169.9 0L288 0c70.7 0 128 57.3 128 128l0 16 0 48 0 80-80 0 0 32-80 0 0 32-80 0 0 176z"/></svg>

<svg xmlns="http://www.w3.org/2000/svg" viewBox="0 0 448 512"><!--! Font Awesome Pro 6.4.2 by @fontawesome - https://fontawesome.com License - https://fontawesome.com/license (Commercial License) Copyright 2023 Fonticons, Inc. --><path d="M176 512H96V288 274.7 272 192 176H64v16 56L16 208V140c0-38 16.9-74 46.1-98.3l5.4-4.5C96.3 13.1 132.5 0 169.9 0H288c70.7 0 128 57.3 128 128v16 48 80H336v32H256v32H176V512z"/></svg>
